!!!OTL: IN SCHWARZ WILL ICH MICH KLEIDEN
!!!ARE: Europa, Mitteleuropa, Deutschland, Bayern, Muenchen
!!!SCT: E1967
!!!YEM: Copyright 1995, estate of Helmut Schaffrath.
**kern
*ICvox
*Ivox
*M3/4
*k[b-]
*F:
{4cc
=1
2cc
4dd
=2
2b-
4cc
=3
4.a
8b-
4cc
=4
2g}
{4f
=5
4.f
8g
4a
=6
4a
2g
=7
2.f
=8
2r}
{4cc
=9
2cc
4dd
=10
2b-
4cc
=11
4.a
8b-
4cc
=12
2g}
{4f
=13
4.f
8g
4a
=14
4a
2g
=15
2.f
=16
2r}
{4a
=17
2b-
4b-
=18
4.cc
8b-
4a
=19
4.g
8a
4b-
=20
2g}
{4b-
=21
4.cc
8b-
4a
=22
4.a
8g
4f
=23
2.g
=24
2r}
{4cc
=25
2cc
4dd
=26
2b-
4cc
=27
4.a
8b-
4cc
=28
2g}
{4f
=29
4.f
8g
4a
=30
4a
2g
=31
2f}
==
!!!AGN: geistlich, Fest - Lied, Biblischer Stoff, Passion
!!!ONB: ESAC (Essen Associative Code) Database: ERK3
!!!AMT: simple triple
!!!AIN: vox
!!!EED: Helmut Schaffrath
!!!EEV: 1.0
*-
